X:10635
T:McKenzie of Coul
R:Reel
O:Scotland
M:4/4
K:D
FG|\
A3B A2d2|B2G2 G2ed|c2A2 A2Bc|defg a2FG|\
A3B A2d2|B2G2 G2d2|
cdec A2c2|d4 d2 :: g2|\
f2a2 a3a|b2g2 e3g| f2a2 d2f2|edcB A2g2 |
|1 \
f2a2 a3a|b2g2 e2g2|f2a2 cdec|d4   d2 :|2\
d4 A2F2|G2B2 E2g2|f2ed e2dc|d4 d2 ||
